X:4994
T:Pantalon,La. CJF.091
T:La Pantalon. CJF.091
O:england
M:6/8
L:1/8
Q:100
S: C.J.Fox MS, 1829/33, Beverley,E.Yorks.
R:Quadrille
A:East Yorkshire
B:Kidson Coll.Mitchell Lib.M1805
N:Title line says "From Watson's Book" - PJH.
K:C
g|"$"e3{g./}fed|c2BA2B|c2cd2d|eag dgf|\
e3{g/}fed|c2BA2B|c2cd2g|cedc2||e|
edc cBB|A2B (BA) e|edc cBA|GA^FG2e|\
edc cBB|A2B (BA) e|edc cBA|GA^FG2"$"||e|
fed cBA|^GABA2c|Bfe dcB|A3^Gze|\
fed cBA|^GAB Ace|Bdf fe^G|(B3" D.C."A2)||


